svg/mountains.svg

<?xml version="1.0" encoding="UTF-8"?>
<svg width="62px" height="50px" viewBox="0 0 62 50" version="1.1" xmlns="http://www.w3.org/2000/svg" xmlns:xlink="http://www.w3.org/1999/xlink">
    <!-- Generator: Sketch 42 (36781) - http://www.bohemiancoding.com/sketch -->
    <title>mountains</title>
    <desc>Created with Sketch.</desc>
    <defs></defs>
    <g id="Page-1" stroke="none" stroke-width="1" fill="none" fill-rule="evenodd">
        <g id="Web-Icons-(272)" transform="translate(-193.000000, -2254.000000)" fill-rule="nonzero" fill="#343434">
            <g id="mountains" transform="translate(193.000000, 2254.000000)">
                <path d="M5.47213595,46 L44.527864,46 L25,6.94427191 L5.47213595,46 Z M22.7607516,2.47849687 C23.9974543,0.00509134752 26.0032996,0.00659926981 27.2392484,2.47849687 L51,50 L4.00957977,50 C1.24286526,50 0.0032996349,47.9934007 1.23924844,45.5215031 L22.7607516,2.47849687 Z" id="Triangle-9"></path>
                <path d="M42.5,17.9442719 L38.8506224,25.2430272 L49.3357238,46 L56.527864,46 L42.5,17.9442719 Z M34.3738971,25.2522059 L40.2633788,13.4732423 C41.4986306,11.0027388 43.5026349,11.0052699 44.7328837,13.4657674 L60.7671163,45.5342326 C62.0003039,48.0006078 60.757875,50 58.0083501,50 L46.8749074,50 L34.3738971,25.2522059 Z" id="Combined-Shape"></path>
                <path d="M37.1003077,28.7862121 L38.8996923,25.2137879 L29.4301723,20.4441111 C28.4454517,19.9481199 26.8930561,20.0284238 25.962933,20.6233897 L24.9339518,21.2815915 C24.468538,21.5792998 23.8239319,21.4622981 23.4952535,21.0216947 L19.6030931,15.8041352 L16.3969069,18.1958648 L21.910528,25.5870415 C22.5734451,26.4757021 23.867002,26.7124182 24.7933162,26.1198888 L27.0407902,24.6822615 C27.5059101,24.3847413 28.2790219,24.3430427 28.7835444,24.5971642 L37.1003077,28.7862121 Z" id="Path-10"></path>
                <path d="M50.2086264,31.2060082 L51.778739,27.5270482 L46.1157612,25.1101933 C45.102895,24.6779206 43.4988826,24.7689972 42.5400378,25.3097059 L38.4765529,27.601173 L40.4413464,31.0853639 L43.6606979,29.2699178 C44.1392555,29.0000512 44.935797,28.9556614 45.440022,29.1708554 L50.2086264,31.2060082 Z" id="Path-11"></path>
            </g>
        </g>
    </g>
</svg>

<svg width="62" height="50" viewBox="0 0 62 50" xmlns="http://www.w3.org/2000/svg"><title>mountains</title><desc>Created with Sketch.</desc><g fill-rule="nonzero" fill="#343434"><path d="M5.472 46h39.056l-19.528-39.056-19.528 39.056zm17.289-43.522c1.237-2.473 3.243-2.472 4.478 0l23.761 47.522h-46.99c-2.767 0-4.006-2.007-2.77-4.478l21.522-43.043z"/><path d="M42.5 17.944l-3.649 7.299 10.485 20.757h7.192l-14.028-28.056zm-8.126 7.308l5.889-11.779c1.235-2.471 3.239-2.468 4.47-.007l16.034 32.068c1.233 2.466-.009 4.466-2.759 4.466h-11.133l-12.501-24.748z"/><path d="M37.1 28.786l1.799-3.572-9.47-4.77c-.985-.496-2.537-.416-3.467.179l-1.029.658c-.465.298-1.11.181-1.439-.26l-3.892-5.218-3.206 2.392 5.514 7.391c.663.889 1.956 1.125 2.883.533l2.247-1.438c.465-.298 1.238-.339 1.743-.085l8.317 4.189z"/><path d="M50.209 31.206l1.57-3.679-5.663-2.417c-1.013-.432-2.617-.341-3.576.2l-4.063 2.291 1.965 3.484 3.219-1.815c.479-.27 1.275-.314 1.779-.099l4.769 2.035z"/></g></svg>
